COLOR/action 16/16/view-fullscreen.svg

<svg height="16" width="16" xmlns="http://www.w3.org/2000/svg"><g fill="#e95420" stroke-width="1.122057" transform="matrix(0 -1 1 0 0 16)"><path d="m0 0c.224527.952968.47349475 1.8995007.74609375 2.8398438.27420195.935373.57600905 1.8622078.90625005 2.7792968l.0019531.0019532 3.9648437-3.96875c-.879103-.326887-1.8019931-.6331338-2.7675781-.9179688-.942878-.272413-1.8943565-.51762-2.8515625-.734375zm14.347656 10.380859-3.96875 3.964844.001953.001953c.916977.330419 1.843867.632229 2.779297.90625.940344.2726 1.886877.521568 2.839844.746094-.216754-.957206-.461962-1.908685-.734375-2.851562-.273456-.933214-.579627-1.855883-.917969-2.767579z" fill="#c43ac4" transform="matrix(0 1 -1 0 16 0)"/><path d="m0 0c.05328865.22617494.1217031.44837489.17773438.67382812.7275646.17550628 1.45498822.35286218 2.17382812.56054688.965585.284835 1.8884782.5910347 2.7675781.9179688l.5-.5c-.879103-.326887-1.8019931-.6331338-2.7675781-.9179688-.942878-.272413-1.8943565-.51762-2.8515625-.734375zm14.347656 10.380859-.5.5c.338342.911696.644513 1.834364.917969 2.767579.207685.718839.385041 1.446263.560547 2.173828.225453.056031.447653.124446.673828.177734-.216754-.957206-.461962-1.908686-.734375-2.851562-.273456-.933215-.579627-1.855883-.917969-2.767579z" fill="#fff" opacity=".3" transform="matrix(0 1 -1 0 16 0)"/><path d="m0 16c.22617494-.053289.44837489-.121703.67382812-.177734.17550628-.727565.35286218-1.454989.56054688-2.173828.284835-.965586.5910347-1.888479.9179688-2.767579l-.5-.5c-.326887.879103-.6331338 1.801993-.9179688 2.767579-.272413.942878-.51762 1.894356-.734375 2.851562zm10.380859-14.347656.5.5c.911696-.338342 1.834364-.644513 2.767579-.917969.718839-.207685 1.446263-.385041 2.173828-.560547.056031-.225453.124446-.447653.177734-.673828-.957206.216754-1.908686.461962-2.851562.734375-.933215.273456-1.855883.579627-2.767579.917969z" fill="#151515" opacity=".2"/><g transform="matrix(-1 0 0 1 16 0)"><path d="m0 0c.224527.952968.47349475 1.8995007.74609375 2.8398438.27420195.935373.57600905 1.8622078.90625005 2.7792968l.00195.00195 3.9648437-3.96875c-.8790999-.3268838-1.80199-.6331306-2.767575-.9179656-.942878-.272413-1.8943565-.51762-2.8515625-.734375zm14.347656 10.380859-3.96875 3.964844.002.002c.916977.330419 1.843867.632229 2.779297.90625.940297.272553 1.88683.521521 2.839797.746047-.216754-.957206-.461962-1.908685-.734375-2.851562-.273456-.933214-.579627-1.855883-.917969-2.767579z" fill="#c43ac4" transform="matrix(0 1 -1 0 16 0)"/><path d="m0 0c.05328865.22617494.1217031.44837489.17773438.67382812.7275646.17550628 1.45498822.35286218 2.17382812.56054688.965585.284835 1.8884782.5910347 2.7675781.9179688l.5-.5c-.879103-.326887-1.8019931-.6331338-2.7675781-.9179688-.942878-.272413-1.8943565-.51762-2.8515625-.734375zm14.347656 10.380859-.5.5c.338342.911696.644513 1.834364.917969 2.767579.207685.718839.385041 1.446263.560547 2.173828.225453.056031.447653.124446.673828.177734-.216754-.957206-.461962-1.908686-.734375-2.851562-.273456-.933215-.579627-1.855883-.917969-2.767579z" fill="#fff" opacity=".3" transform="matrix(0 1 -1 0 16 0)"/><path d="m0 16c.22617494-.053289.44837489-.121703.67382812-.177734.17550628-.727565.35286218-1.454989.56054688-2.173828.284835-.965586.5910347-1.888479.9179688-2.767579l-.5-.5c-.326887.879103-.6331338 1.801993-.9179688 2.767579-.272413.942878-.51762 1.894356-.734375 2.851562zm10.380859-14.347656.5.5c.911696-.338342 1.834364-.644513 2.767579-.917969.718839-.207685 1.446263-.385041 2.173828-.560547.056031-.225453.124446-.447653.177734-.673828-.957206.216754-1.908686.461962-2.851562.734375-.933215.273456-1.855883.579627-2.767579.917969z" fill="#151515" opacity=".2"/></g></g></svg>

<?xml version="1.0" encoding="UTF-8" standalone="no"?>
<svg
   xmlns:dc="http://purl.org/dc/elements/1.1/"
   xmlns:cc="http://creativecommons.org/ns#"
   xmlns:rdf="http://www.w3.org/1999/02/22-rdf-syntax-ns#"
   xmlns:svg="http://www.w3.org/2000/svg"
   xmlns="http://www.w3.org/2000/svg"
   xmlns:sodipodi="http://sodipodi.sourceforge.net/DTD/sodipodi-0.dtd"
   xmlns:inkscape="http://www.inkscape.org/namespaces/inkscape"
   height="16"
   width="16"
   version="1.1"
   id="svg8"
   sodipodi:docname="multisystem-flip-vertical.svg"
   inkscape:version="0.92.4 (5da689c313, 2019-01-14)">
  <metadata
     id="metadata14">
    <rdf:RDF>
      <cc:Work
         rdf:about="">
        <dc:format>image/svg+xml</dc:format>
        <dc:type
           rdf:resource="http://purl.org/dc/dcmitype/StillImage" />
        <dc:title />
      </cc:Work>
    </rdf:RDF>
  </metadata>
  <defs
     id="defs12" />
  <sodipodi:namedview
     pagecolor="#ffffff"
     bordercolor="#666666"
     borderopacity="1"
     objecttolerance="10"
     gridtolerance="10"
     guidetolerance="10"
     inkscape:pageopacity="0"
     inkscape:pageshadow="2"
     inkscape:window-width="1920"
     inkscape:window-height="1016"
     id="namedview10"
     showgrid="false"
     inkscape:zoom="52.437503"
     inkscape:cx="4.3289633"
     inkscape:cy="8.2215797"
     inkscape:window-x="0"
     inkscape:window-y="27"
     inkscape:window-maximized="1"
     inkscape:current-layer="g6" />
  <g
     fill="#e95420"
     transform="matrix(0 -1 1 0 0 16)"
     id="g6">
    <g
       id="g820">
      <path
         transform="rotate(90,8,8)"
         id="path4"
         d="M 0 0 C 0.224527 0.952968 0.47349475 1.8995007 0.74609375 2.8398438 C 1.0202957 3.7752168 1.3221028 4.7020516 1.6523438 5.6191406 L 1.6542969 5.6210938 L 5.6191406 1.6523438 C 4.7400376 1.3254568 3.8171475 1.01921 2.8515625 0.734375 C 1.9086845 0.461962 0.957206 0.216755 0 0 z M 14.347656 10.380859 L 10.378906 14.345703 L 10.380859 14.347656 C 11.297836 14.678075 12.224726 14.979885 13.160156 15.253906 C 14.1005 15.526506 15.047033 15.775474 16 16 C 15.783246 15.042794 15.538038 14.091315 15.265625 13.148438 C 14.992169 12.215224 14.685998 11.292555 14.347656 10.380859 z "
         style="fill:#c43ac4;fill-opacity:1;stroke-width:1.12205684" />
      <path
         transform="rotate(90,8,8)"
         id="path912"
         d="M 0 0 C 0.053288653 0.22617494 0.1217031 0.44837489 0.17773438 0.67382812 C 0.90529898 0.8493344 1.6327226 1.0266903 2.3515625 1.234375 C 3.3171475 1.51921 4.2400407 1.8254097 5.1191406 2.1523438 L 5.6191406 1.6523438 C 4.7400376 1.3254568 3.8171475 1.01921 2.8515625 0.734375 C 1.9086845 0.461962 0.957206 0.216755 0 0 z M 14.347656 10.380859 L 13.847656 10.880859 C 14.185998 11.792555 14.492169 12.715223 14.765625 13.648438 C 14.97331 14.367277 15.150666 15.094701 15.326172 15.822266 C 15.551625 15.878297 15.773825 15.946712 16 16 C 15.783246 15.042794 15.538038 14.091314 15.265625 13.148438 C 14.992169 12.215223 14.685998 11.292555 14.347656 10.380859 z "
         style="fill:#ffffff;fill-opacity:1;stroke-width:1.12205684;opacity:0.3" />
      <path
         inkscape:connector-curvature="0"
         style="opacity:0.2;fill:#151515;fill-opacity:1;stroke-width:1.12205684"
         d="M 0,16 C 0.22617494,15.946711 0.44837489,15.878297 0.67382812,15.822266 0.8493344,15.094701 1.0266903,14.367277 1.234375,13.648438 1.51921,12.682852 1.8254097,11.759959 2.1523438,10.880859 l -0.5,-0.5 C 1.3254568,11.259962 1.01921,12.182852 0.734375,13.148438 0.461962,14.091316 0.216755,15.042794 0,16 Z m 10.380859,-14.347656 0.5,0.5 C 11.792555,1.814002 12.715223,1.507831 13.648438,1.234375 14.367277,1.02669 15.094701,0.849334 15.822266,0.673828 15.878297,0.448375 15.946712,0.226175 16,0 15.042794,0.216754 14.091314,0.461962 13.148438,0.734375 12.215223,1.007831 11.292555,1.314002 10.380859,1.652344 Z"
         id="path917" />
    </g>
    <g
       id="g828"
       transform="matrix(-1,0,0,1,16,0)">
      <path
         style="fill:#c43ac4;fill-opacity:1;stroke-width:1.12205684"
         d="M 0,0 C 0.224527,0.952968 0.47349475,1.8995007 0.74609375,2.8398438 1.0202957,3.7752168 1.3221028,4.7020516 1.6523438,5.6191406 l 0.00195,0.00195 3.9648437,-3.96875 C 4.7400376,1.3254568 3.8171475,1.01921 2.8515625,0.734375 1.9086845,0.461962 0.957206,0.216755 0,0 Z m 14.347656,10.380859 -3.96875,3.964844 0.002,0.002 c 0.916977,0.330419 1.843867,0.632229 2.779297,0.90625 C 14.1005,15.526506 15.047033,15.775474 16,16 15.783246,15.042794 15.538038,14.091315 15.265625,13.148438 14.992169,12.215224 14.685998,11.292555 14.347656,10.380859 Z"
         id="path822"
         transform="rotate(90,8,8)"
         inkscape:connector-curvature="0" />
      <path
         style="opacity:0.3;fill:#ffffff;fill-opacity:1;stroke-width:1.12205684"
         d="M 0,0 C 0.05328865,0.22617494 0.1217031,0.44837489 0.17773438,0.67382812 0.90529898,0.8493344 1.6327226,1.0266903 2.3515625,1.234375 3.3171475,1.51921 4.2400407,1.8254097 5.1191406,2.1523438 l 0.5,-0.5 C 4.7400376,1.3254568 3.8171475,1.01921 2.8515625,0.734375 1.9086845,0.461962 0.957206,0.216755 0,0 Z m 14.347656,10.380859 -0.5,0.5 c 0.338342,0.911696 0.644513,1.834364 0.917969,2.767579 0.207685,0.718839 0.385041,1.446263 0.560547,2.173828 C 15.551625,15.878297 15.773825,15.946712 16,16 15.783246,15.042794 15.538038,14.091314 15.265625,13.148438 14.992169,12.215223 14.685998,11.292555 14.347656,10.380859 Z"
         id="path824"
         transform="rotate(90,8,8)"
         inkscape:connector-curvature="0" />
      <path
         id="path826"
         d="M 0,16 C 0.22617494,15.946711 0.44837489,15.878297 0.67382812,15.822266 0.8493344,15.094701 1.0266903,14.367277 1.234375,13.648438 1.51921,12.682852 1.8254097,11.759959 2.1523438,10.880859 l -0.5,-0.5 C 1.3254568,11.259962 1.01921,12.182852 0.734375,13.148438 0.461962,14.091316 0.216755,15.042794 0,16 Z m 10.380859,-14.347656 0.5,0.5 C 11.792555,1.814002 12.715223,1.507831 13.648438,1.234375 14.367277,1.02669 15.094701,0.849334 15.822266,0.673828 15.878297,0.448375 15.946712,0.226175 16,0 15.042794,0.216754 14.091314,0.461962 13.148438,0.734375 12.215223,1.007831 11.292555,1.314002 10.380859,1.652344 Z"
         style="opacity:0.2;fill:#151515;fill-opacity:1;stroke-width:1.12205684"
         inkscape:connector-curvature="0" />
    </g>
  </g>
</svg>
